src/assets/homepage/services/ophitalmologistIcon.svg

<svg width="120" height="120" viewBox="0 0 120 120" fill="none" xmlns="http://www.w3.org/2000/svg">
<g id="Group 236">
<circle id="Ellipse 6" cx="59.9999" cy="59.3295" r="59.3295" fill="#FAFAFA"/>
<g id="Group 235">
<g id="Ellipse 7" filter="url(#filter0_di_41_334)">
<circle cx="60.5931" cy="59.9239" r="50.43" fill="#3B4AE2"/>
</g>
<g id="Black">
<path id="Vector" d="M58.401 42.6533C52.7482 43.1364 47.342 45.4078 42.717 49.2415C39.9214 51.5437 37.65 54.2057 35.3375 57.8749L34.2583 59.5913L34.9572 60.7013C37.095 64.1444 38.8422 66.385 40.9081 68.3583C46.1806 73.3637 52.1521 76.0873 58.9047 76.5704C64.9892 77.002 71.4334 75.0903 76.6751 71.3081C80.2724 68.6975 83.0885 65.6141 85.7813 61.318L86.8605 59.5913L85.7813 57.8749C82.698 52.9929 79.481 49.6423 75.2568 46.9392C70.2309 43.7222 64.1053 42.16 58.401 42.6533ZM62.4608 46.97C69.8712 47.6073 76.7676 51.9959 81.3721 59.0055L81.7627 59.6016L81.3104 60.2902C79.6249 62.8699 77.0862 65.6141 74.7326 67.4025C72.7387 68.9031 70.0459 70.3522 67.8361 71.1025C62.0908 73.0553 55.9755 72.6442 50.4974 69.9206C46.2115 67.8033 42.5834 64.5247 39.7467 60.1977L39.3561 59.6016L39.8084 58.913C41.052 57.0013 43.0048 54.7299 44.6287 53.2807C46.674 51.4615 48.2773 50.372 50.5385 49.262C54.403 47.3709 58.3394 46.6103 62.4608 46.97Z" fill="#F1F8F9"/>
<path id="Vector_2" d="M59.6699 49.073C57.2545 49.3094 55.0551 50.3371 53.2667 52.0844C50.9131 54.3661 49.8031 57.398 50.0806 60.7486C50.2964 63.2873 51.3962 65.6101 53.2667 67.419C55.5587 69.6596 58.5393 70.7079 61.7563 70.4304C64.2332 70.2043 66.4121 69.1971 68.2313 67.419C70.0916 65.6101 71.1811 63.3387 71.4175 60.7589C71.9005 55.5891 68.6938 50.8819 63.7091 49.4327C62.9485 49.2169 62.5374 49.1552 61.006 49.0216C60.7799 49.001 60.1837 49.0216 59.6699 49.073ZM57.6348 52.7319C58.5598 53.1636 59.0635 54.0886 58.9812 55.1677C58.786 57.5933 55.4456 58.2203 54.4179 56.0208C54.017 55.1472 54.1301 54.0475 54.7056 53.3794C55.4148 52.5366 56.6584 52.2591 57.6348 52.7319ZM56.2268 59.947C58.6832 61.0261 59.0943 61.1392 60.749 61.1392C62.4038 61.1392 62.8149 61.0261 65.2713 59.947C66.1552 59.5564 67.1008 59.207 67.3577 59.1761C67.7894 59.1145 67.8613 59.135 68.1388 59.4125C68.5088 59.7825 68.6116 60.3581 68.5294 61.5606C68.3752 63.7703 67.1624 65.6615 65.2302 66.7509C63.2568 67.8507 60.5846 68.1384 58.1282 67.5115C57.2237 67.2854 55.7334 66.5043 55.0654 65.9081C53.8731 64.8495 53.0817 63.2153 52.9687 61.5606C52.8865 60.3581 52.9892 59.7825 53.3592 59.4125C53.6367 59.135 53.7087 59.1145 54.1404 59.1761C54.3973 59.207 55.3429 59.5564 56.2268 59.947Z" fill="#F1F8F9"/>
</g>
</g>
</g>
<defs>
<filter id="filter0_di_41_334" x="5.41673" y="9.4939" width="110.353" height="110.353" filterUnits="userSpaceOnUse" color-interpolation-filters="sRGB">
<feFlood flood-opacity="0" result="BackgroundImageFix"/>
<feColorMatrix in="SourceAlpha" type="matrix" values="0 0 0 0 0 0 0 0 0 0 0 0 0 0 0 0 0 0 127 0" result="hardAlpha"/>
<feOffset dy="4.74636"/>
<feGaussianBlur stdDeviation="2.37318"/>
<feComposite in2="hardAlpha" operator="out"/>
<feColorMatrix type="matrix" values="0 0 0 0 0 0 0 0 0 0 0 0 0 0 0 0 0 0 0.25 0"/>
<feBlend mode="normal" in2="BackgroundImageFix" result="effect1_dropShadow_41_334"/>
<feBlend mode="normal" in="SourceGraphic" in2="effect1_dropShadow_41_334" result="shape"/>
<feColorMatrix in="SourceAlpha" type="matrix" values="0 0 0 0 0 0 0 0 0 0 0 0 0 0 0 0 0 0 127 0" result="hardAlpha"/>
<feMorphology radius="1.18659" operator="erode" in="SourceAlpha" result="effect2_innerShadow_41_334"/>
<feOffset/>
<feGaussianBlur stdDeviation="4.74636"/>
<feComposite in2="hardAlpha" operator="arithmetic" k2="-1" k3="1"/>
<feColorMatrix type="matrix" values="0 0 0 0 0 0 0 0 0 0 0 0 0 0 0 0 0 0 0.25 0"/>
<feBlend mode="normal" in2="shape" result="effect2_innerShadow_41_334"/>
</filter>
</defs>
</svg>

<svg width="120" height="120" fill="none" xmlns="http://www.w3.org/2000/svg"><circle cx="60" cy="59.33" r="59.33" fill="#FAFAFA"/><g filter="url(#a)"><circle cx="60.593" cy="59.924" r="50.43" fill="#3B4AE2"/></g><g fill="#F1F8F9"><path d="M58.401 42.653c-5.653.483-11.059 2.755-15.684 6.589-2.796 2.302-5.067 4.964-7.38 8.633l-1.079 1.716.7 1.11c2.137 3.443 3.884 5.684 5.95 7.657 5.273 5.006 11.244 7.73 17.997 8.212 6.084.432 12.528-1.48 17.77-5.262 3.597-2.61 6.413-5.694 9.106-9.99l1.08-1.727-1.08-1.716c-3.083-4.882-6.3-8.233-10.524-10.936-5.026-3.217-11.152-4.779-16.856-4.286Zm4.06 4.317c7.41.637 14.307 5.026 18.911 12.035l.39.597-.452.688c-1.685 2.58-4.224 5.324-6.577 7.113-1.994 1.5-4.687 2.95-6.897 3.7-5.745 1.952-11.86 1.541-17.339-1.182-4.285-2.118-7.914-5.396-10.75-9.723l-.39-.596.451-.689c1.244-1.912 3.197-4.183 4.82-5.632 2.046-1.82 3.65-2.909 5.91-4.019 3.865-1.891 7.801-2.652 11.923-2.292Z"/><path d="M59.67 49.073c-2.416.236-4.615 1.264-6.403 3.011-2.354 2.282-3.464 5.314-3.186 8.665.215 2.538 1.315 4.861 3.186 6.67 2.292 2.24 5.272 3.289 8.49 3.011 2.476-.226 4.655-1.233 6.474-3.011 1.86-1.809 2.95-4.08 3.187-6.66a10.7 10.7 0 0 0-7.709-11.326c-.76-.216-1.172-.278-2.703-.411-.226-.021-.822 0-1.336.051Zm-2.035 3.659c.925.432 1.428 1.357 1.346 2.436-.195 2.425-3.535 3.052-4.563.853-.401-.874-.288-1.974.288-2.642.709-.842 1.952-1.12 2.929-.647Zm-1.408 7.215c2.456 1.08 2.867 1.192 4.522 1.192 1.655 0 2.066-.113 4.522-1.192.884-.39 1.83-.74 2.087-.77.431-.063.503-.042.78.236.37.37.474.945.391 2.148-.154 2.21-1.367 4.1-3.299 5.19-1.973 1.1-4.645 1.387-7.102.76-.904-.226-2.395-1.007-3.063-1.603-1.192-1.058-1.983-2.693-2.096-4.347-.083-1.203.02-1.779.39-2.148.278-.278.35-.298.781-.237.257.031 1.203.38 2.087.771Z"/></g><defs><filter id="a" x="5.417" y="9.494" width="110.353" height="110.353" filterUnits="userSpaceOnUse" color-interpolation-filters="sRGB"><feFlood flood-opacity="0" result="BackgroundImageFix"/><feColorMatrix in="SourceAlpha" values="0 0 0 0 0 0 0 0 0 0 0 0 0 0 0 0 0 0 127 0" result="hardAlpha"/><feOffset dy="4.746"/><feGaussianBlur stdDeviation="2.373"/><feComposite in2="hardAlpha" operator="out"/><feColorMatrix values="0 0 0 0 0 0 0 0 0 0 0 0 0 0 0 0 0 0 0.25 0"/><feBlend in2="BackgroundImageFix" result="effect1_dropShadow_41_334"/><feBlend in="SourceGraphic" in2="effect1_dropShadow_41_334" result="shape"/><feColorMatrix in="SourceAlpha" values="0 0 0 0 0 0 0 0 0 0 0 0 0 0 0 0 0 0 127 0" result="hardAlpha"/><feMorphology radius="1.187" in="SourceAlpha" result="effect2_innerShadow_41_334"/><feOffset/><feGaussianBlur stdDeviation="4.746"/><feComposite in2="hardAlpha" operator="arithmetic" k2="-1" k3="1"/><feColorMatrix values="0 0 0 0 0 0 0 0 0 0 0 0 0 0 0 0 0 0 0.25 0"/><feBlend in2="shape" result="effect2_innerShadow_41_334"/></filter></defs></svg>
